public/arrow.svg

<svg fill="none" height="16" viewBox="0 0 155 16" width="155" xmlns="http://www.w3.org/2000/svg"><path d="m154.707 8.70711c.391-.39053.391-1.02369 0-1.41422l-6.364-6.363958c-.39-.390524-1.024-.390524-1.414 0-.391.390528-.391 1.023688 0 1.414218l5.657 5.65685-5.657 5.6569c-.391.3905-.391 1.0236 0 1.4142.39.3905 1.024.3905 1.414 0zm-154.707.29289h154v-2h-154z" fill="#6883cc" fill-opacity=".3"/></svg>

<svg width="155" height="16" viewBox="0 0 155 16" fill="none" xmlns="http://www.w3.org/2000/svg">
<path d="M154.707 8.70711C155.098 8.31658 155.098 7.68342 154.707 7.29289L148.343 0.928932C147.953 0.538408 147.319 0.538408 146.929 0.928932C146.538 1.31946 146.538 1.95262 146.929 2.34315L152.586 8L146.929 13.6569C146.538 14.0474 146.538 14.6805 146.929 15.0711C147.319 15.4616 147.953 15.4616 148.343 15.0711L154.707 8.70711ZM0 9H154V7H0V9Z" fill="#6883CC" fill-opacity="0.3"/>
</svg>
